!!!OTL: Des Morgens in der Fruehe da treiben wir die Kuehe
!!!ARE: Europa, Mitteleuropa, Oesterreich, Salzburg
!!!SCT: D0120
!!!YEM: Copyright 1995, estate of Helmut Schaffrath.
**kern
*ICvox
*Ivox
!! Mixed meters:  3/4; 4/4
*M3/4
*k[b-e-]
*B-:
=1
{8f
=2
4.f
8d
8e-
8g
=3
8f
8dd
8b-
16r}
{16f
12f
12a
12cc
=4
8ff
4gg
8ff
12ee-
12f
12dd
=5
2b-
8r}
{8f
=6
4.f
8d
8e-
8g
=7
8f
8dd
8b-
16r}
{16c
12c
12e-
12g
=8
8cc
4dd
8cc
12b-
12f
12a
=9
2f
8r}
{8f
=10
8e-
8cc
4b-
4a
=11
4b-
4f
8c
8d
=12
8e-
8cc
4g
4a
=13
2b-
8r}
{8b-
=14
4.e-
8g
16cc
16b-
16a
16g
=15
8f
8b-
4f
8r
8cc
=16
8.f
16f
4g
4a
=17
8b-
8cc
8dd
8cc
=18
=19
8.b-
16a
=20
4.g
8a
16cc
16b-
16a
16g}
=21
{8f
8b-
4f
8r
8cc
=22
8.f
16f
4g
4a
=23
4.b-
=24
=25
8d
8f
8b-
=26
8.dd
16dd
8dd
8cc
8b-
8g
=27
8.f
16f
8f
8d
8f
8b-
=28
8.a
16a
8a}
{8f
8a
8cc
=29
8.b-
16b-
8b-
8a
8b-
8cc
=30
8.dd
16dd
8dd
8cc
8b-
8g
=31
8.f
16g
8f
16r}
{16f
8.f
16b-
=32
*M4/4
8a
8f
8ff
8ee-
8gg
8ff
8ee-
8a
=33
2b-
8r}
==
!!!AGN: Alm - Lied, Jodel - Lied
!! Zeile 268 rhythmisch korrigiert; Inzipit = Variante zum Lied
!!!ONB: ESAC (Essen Associative Code) Database: DVA
!!!AMT: irregular
!!!AIN: vox
!!!EED: Helmut Schaffrath
!!!EEV: 1.0
*-
